X: 21453
T: La ESMERELDA POLKA
%R: polka, reel
B: W. Hamilton "Universal Tune-Book" Vol. 2 Glasgow 1846 p.145 #3
S: http://s3-eu-west-1.amazonaws.com/itma.dl.printmaterial/book_pdfs/hamiltonvol2web.pdf
Z: 2016 John Chambers <jc:trillian.mit.edu>
M: 2/4
L: 1/16
K: C
% - - - - - - - - - - - - - - - - - - - - - - - - -
G2 |\
e2ef g2c2 | e2{e}d^c defg | a2de f2B2 | cc'ba gagf |\
e2ef g2c2 | e2{e}d^c defg | a2de f2B2 | cc'ge "^Fin."c2 H|]
Gc |\
e2 e4 e2 | e2e2{g}f2e2 | e2d2e2d2 | e2c2d2c2 |\
e2 e4 e2 | e2e2 {g}f2e2 | e2d2e2d2 | c2eg "^D.C."c'2 |]
de |\
d2 b4 bc' | b2a2 aba2 | c2 a4 ab | a2g2 gag2 |\
d2 b4 bc' | b2a2 aba2 | d2a2b2a2 | a2g2"^D.C."g2 |]
% - - - - - - - - - - - - - - - - - - - - - - - - -

%%sep 1 1 500
%%sep 1 1 500

